X:2
T:Speed the Plow, lower octave
R:Reel
M:C
L:1/8
K:A %Transposed from D
"A"E4 C4 | "E"B,A,B,D "A"CB,A,2 | "D"FEFG AFED | "E"C2<B,2 B,2 CD |
"A"E4 C4 | "E"B,A,B,D "A"CB,A,2 | "D"FEFG AFED | "E"CB,3 "A"A,4:|
|:"A"E2E2 "D"FEDF | "A"ECE2 "D"F3E | "D"FEFG "Bm"AFED | "E"C2<B,2 B,2CD |
"A"E2E2 "D"FEDF | "A"ECE2 "D"F3E | "Bm"FEFG AFED | "E"CB,3 "A"A,4:|]
%%scale .5
%%text 04/12/14 

#include "LeftHeader.h"
%%text Set 118 NEFFA 2014 Jig set
$SmallRMargin
$SmallLMargin
%%scale .9
